X: 29891
T: O'Mealy's
R: hornpipe
M: 4/4
K: Gmajor
|:(3DEF|GFGA BGBd|gfga bgdB|cBAG FAdc|(3BcB (3ABA GFED|
GFGA BGBd|gfga bgdB|cBAG FAdc|(3BcB (3ABA G2:|
|:(3Bcd|gd (3Bcd gd (3Bcd|gd (3Bcd g2ag fdAd fdAd|fdAd f2af|
gd (3Bcd gd (3Bcd|gd (3Bcd gbag|fdAG FAdc|(3BcB G2 G2:|

